fs/cursor_hover_20_filled.svg

<svg viewBox="0 0 20 20" fill="none" xmlns="http://www.w3.org/2000/svg" height="1em" width="1em">
  <path d="M4 4C2.89543 4 2 4.89543 2 6V13C2 14.1046 2.89543 15 4 15H9V10.5C9 9.89335 9.36546 9.3464 9.92597 9.11422C10.4865 8.88205 11.1317 9.01039 11.5607 9.43938L16.5607 14.4394C16.6738 14.5525 16.7658 14.6804 16.8358 14.8175C17.523 14.501 18 13.8062 18 13V6C18 4.89543 17.1046 4 16 4H4ZM10.8536 10.1465C10.7106 10.0035 10.4955 9.96068 10.3087 10.0381C10.1218 10.1155 10 10.2978 10 10.5V17.5C10 17.7183 10.1415 17.9113 10.3497 17.9769C10.5578 18.0425 10.7845 17.9655 10.9096 17.7867L12.4813 15.5415L15.424 15.9942C15.6377 16.0271 15.8483 15.9189 15.946 15.726C16.0437 15.5332 16.0064 15.2993 15.8536 15.1465L10.8536 10.1465ZM11 15.9138V11.7071L14.0665 14.7736L12.326 14.5058C12.1379 14.4769 11.9496 14.5573 11.8404 14.7133L11 15.9138Z" fill="#212121"/>
</svg>

<svg viewBox="0 0 20 20" fill="none" xmlns="http://www.w3.org/2000/svg" height="1em" width="1em">
  <path d="M4 4a2 2 0 0 0-2 2v7a2 2 0 0 0 2 2h5v-4.5a1.5 1.5 0 0 1 2.56-1.06l5 5c.114.113.206.24.276.378A2 2 0 0 0 18 13V6a2 2 0 0 0-2-2H4Zm6.854 6.146A.5.5 0 0 0 10 10.5v7a.5.5 0 0 0 .91.287l1.571-2.245 2.943.452a.5.5 0 0 0 .43-.848l-5-5ZM11 15.915v-4.207l3.066 3.067-1.74-.268a.5.5 0 0 0-.486.207l-.84 1.2Z" fill="#212121"/>
</svg>
